X: 20
T: Processional (from Water Music)
C: G. F. Handel/Monday
K:G
M: 3/4
L: 1/8
V:1
|: "G" !mf!vB2 B2 B2 | B2 (Bc) Bc | d2 d2 d2 | "C*" d2 (cd !4!e2) | "Am" vc2 c2 c2 | "D7" c2 (Bc d2) |
"G" B2 BB BB | B6 :||: "G" !mf!vd2 d2 d2 | "D" !crescendo(! (d2 e2) f2 | "Em" g2 gg gg !crescendo)! | !f!"G" g4 d2 |
"C" !4!(ve2 d2) c2 | "G" (B2 A2) G2 | "D" A2 DD DD | "D" D6 | "G" (vBc) d2 cB | "D" (AB) c2 BA |
!p!"G" (Bc) d2 cB | "D" (AB) c2 BA | "G" !f!(vBc) d2 "Am*" c2 | "G" B2 (cB) "D" AB | "G" G2 GG GG | "G" G6 :|
V:2
M: 3/4
L: 1/8
|: !mf!vG2 D2 D2 | G6 | G2 D2 B2 | G6 | vA2 E2 A2 | F6 |
G2 D2 G2 | D2 D2 D2 :||: !mf!vB2 B2 B2 | !crescendo(! A2 A2 A2 | B2 E2 B2 !crescendo)! | !f!B2 D2 B2 |
vG6 | D6 | D6 | D2 A2 D2 | vG4 D2 | F2 F2 D2 |
!p!G4 D2 | F2 F2 D2 | !f!vG4 D2 | G2 D2 F2 | G2 D2 D2 | D6 :|
W: Asterisked chords conflict with harmony.  If second part
W: is played,  just continue with previous chord.

